X: 35198
T: Rooskey, The
R: polka
M: 2/4
K: Gmajor
|:d2 de/f/|g/f/e/d/ BA|Be dG|BA AB/c/|
d2 de/f/|g/f/e/d/ BA|Bd g>a|ba g2:|
|:Bd g>a|ba a/b/a/g/|fd fa|gf ed|
Bd g>a|ba a/b/a/g/|fd fa|gf g2:|

